!!!!SEGMENT: pl-wnifc--6782-n--002_ostrowski-jan--w-zakopanem-op-27-mazur-2.krn
!!!cenid: 18xx:4047
!!!COM: Ostrowski, Jan
!!!COM-rismID: pe50048393
!!!CDT: 1853-1899/02/16
!!!CNT: Polish
!!!GTL: W Zakopanem op. 27
!!!OTL: Mazur 2.
!!!OMV: 002
!!!PDT: 1896
!!!AGN:
!!!SMS-siglum: PL-Wnifc
!!!SMS-shelfmark: 6782/n
!!!SMS-shelfwork: 001-002 G
!!!SMS-variant:
!!!SMS-altvar:
!!!NIFC-rismSourceID: 1001160428
!!!NIFC-rismChildID: 1001160428
!!!NIFC-islandoraID: nifc:213525
!!!URL-pdf-islandora: https://repozytorium.nifc.pl/islandora/object/nifc%3A213525/datastream/PDF/view
!!!URL-scan: https://polish.musicsources.pl/pl/lokalizacje/galeria/druki-muzyczne/16917-w-zakopanem/4 @EN{Scan on Polish Music Sources Website} @PL{Skany w portalu Dziedzictwo Muzyki Polskiej w otwartym dostępie}
!!!ONB-nifc: UWAGA: w zbiorze 3 Mazury numerowane 001-003
!!!AIN: 1 piano
!!!key: G
**kern	**kern	**dynam
*part1	*part1	*part1
*staff2	*staff1	*
*>[A,A,B,B,C,D,D,E]	*>[A,A,B,B,C,D,D,E]	*
*>A	*>A	*
*I"Fortepian	*I"Fortepian	*
*Ipiano	*Ipiano	*
*ICklav	*ICklav	*
*clefF4	*clefG2	*
*k[f#]	*k[f#]	*
*G:	*G:	*
*M3/8	*M3/8	*
=1	=1	=1
!	!LO:TX:a:t=Mazur.	!
!	!LO:TUP:a:problem:klamra łukowa	!LO:DY:t=mf gajo
8GG\L	24dd\LL	mf
.	24ee\	.
.	24ff#\JJ	.
8B 8G 8D\	8.gg^\L	.
8BJ 8G 8D\	.	.
.	16ee\Jk	.
=2	=2	=2
8BB\L	16dd\LL	.
.	16cc\JJ	.
8G 8D\	8b'/L	.
8BJ 8G 8D\	8g'/J	.
=3	=3	=3
8D\L	16g#X/LL	.
.	16a/JJ	.
8c 8A 8F#\	8.dd^\L	.
8cJ 8A 8F#\	.	.
.	16cc\Jk	.
=4	=4	=4
8D\L	16b/LL	.
.	16a/JJ	.
8c 8A 8F#\	8f#'/L	.
8cJ 8A 8F#\	8d'/J	.
=5	=5	=5
!	!LO:TUP:a:problem:klamra łukowa	!
8GG\L	24dd\LL	.
.	24ee\	.
.	24ff#\JJ	.
8B 8G 8D\	8.gg^\L	.
8BJ 8G 8D\	.	.
.	16ee\Jk	.
=6	=6	=6
8BB\L	16dd\LL	.
.	16cc\JJ	.
8G 8D\	8b/L	.
8BJ 8G 8D\	8g/J	.
=7	=7	=7
8D\L	16b/LL	.
.	16a/JJ	.
8c 8A 8F#\	8f#/L	.
8cJ 8A 8F#\	8d/J	.
=8	=8	=8
8BL 8G\	8g\L	.
8BJ 8G\	8gg:J 8dd: 8b: 8g:\	.
8r	8r	.
!!LO:LB:g=original
=9:|!|:	=9:|!|:	=9:|!|:
*>B	*>B	*
8BBL 8BBB'^>/	8.fff#L 8.ddd 8.ff#^\	f
8D 8DD'^>/	.	.
.	16eeeL 16ccc#X 16ee\	.
8F#J 8FF#'^>/	16ddd 16bb 16dd\	.
.	16ccc#JJ 16aa#X 16cc#X\	.
=10	=10	=10
8BL 8BB\	4.bb 4.b\	.
8f# 8d 8B\	.	.
8f#J 8d 8B\	.	.
=11	=11	=11
!	!LO:TUP:a:problem:klamra łukowa	!
8eL 8A#X 8F#\	24cc#X\LL	p
.	24dd\	.
.	24ee\JJ	.
8e 8A# 8F#\	8cc#'\L	.
8eJ 8A# 8F#\	8cc#'\J	.
=12	=12	=12
!	!LO:TUP:a:problem:klamra łukowa	!
8dL 8B 8F#\	24dd\LL	.
.	24ee\	.
.	24ff#\JJ	.
8d 8B 8F#\	8dd'\L	.
8dJ 8B 8F#\	8dd'\J	.
=13	=13	=13
8BBL 8BBB'^>/	8.fff#L 8.ddd 8.ff#^\	f
8D 8DD'^>/	.	.
.	16eeeL 16ccc#X 16ee\	.
8F#J 8FF#'^>/	16ddd 16bb 16dd\	.
.	16ccc#JJ 16aa#X 16cc#X\	.
=14	=14	=14
8GL 8GG'^>/	4.bb 4.gg 4.b\	.
8B 8BB'^>/	.	.
8EJ 8EE'^>/	.	.
=15	=15	=15
!	!LO:TUP:a:problem:klamra łukowa	!
8F#L 8FF#\	24cc#X\LL	p
.	24dd\	.
.	24ee\JJ	.
8e 8A#X 8F#\	8dd'\L	.
8eJ 8A# 8F#\	8cc#'\J	.
=16	=16	=16
8dL 8B\	8b\L	.
8BJ 8BB\	8bb:J 8ff#: 8dd: 8b:\	.
8r	8r	.
!!LO:LB:g=original
=17:|!	=17:|!	=17:|!
*>C	*>C	*
!	!LO:TUP:a:problem:klamra łukowa	!LO:DY:t=mf gajo
8GG\L	24dd\LL	mf
.	24ee\	.
.	24ff#\JJ	.
8B 8G 8D\	8.gg^\L	.
8BJ 8G 8D\	.	.
.	16ee\Jk	.
=18	=18	=18
8BB\L	16dd\LL	.
.	16cc\JJ	.
8G 8D\	8b'/L	.
8BJ 8G 8D\	8g'/J	.
=19	=19	=19
8D\L	16g#X/LL	.
.	16a/JJ	.
8c 8A 8F#\	8.dd^\L	.
8cJ 8A 8F#\	.	.
.	16cc\Jk	.
=20	=20	=20
8D\L	16b/LL	.
.	16a/JJ	.
8c 8A 8F#\	8f#'/L	.
8cJ 8A 8F#\	8d'/J	.
=21	=21	=21
!	!LO:TUP:a:problem:klamra łukowa	!
8GG\L	24dd\LL	.
.	24ee\	.
.	24ff#\JJ	.
8B 8G 8D\	8.gg^\L	.
8BJ 8G 8D\	.	.
.	16ee\Jk	.
=22	=22	=22
8BB\L	16dd\LL	.
.	16cc\JJ	.
8G 8D\	8b/L	.
8BJ 8G 8D\	8g/J	.
=23	=23	=23
8D\L	16b/LL	.
.	16a/JJ	.
8c 8A 8F#\	8f#/L	.
8cJ 8A 8F#\	8d/J	.
=24	=24	=24
8BL 8G\	8g\L	.
8BJ 8G\	8gg:J 8dd: 8b: 8g:\	.
8r	8r	.
!!LO:LB:g=original
=25||	=25||	=25||
*>D	*>D	*
*k[]	*k[]	*
*M3/8	*M3/8	*
!	!LO:TX:a:t=Trio.:rj	!
8C\L	16cc\LL	p
.	16ee\JJ	.
8e 8c 8G\	4gg^\	.
8eJ 8c 8G\	.	.
=26	=26	=26
8C\L	16cc\LL	.
.	16ee\JJ	.
8e 8c 8G\	8gg'\L	.
8eJ 8c 8G\	8gg'\J	.
=27	=27	=27
8C\L	16aa\LL	<
.	16bb\JJ	.
8f 8c 8A\	4ccc^\	[[
8fJ 8c 8A\	.	.
=28	=28	=28
8C\L	16gg\LL	>
.	16ee\JJ	.
8e 8c 8G\	4cc^\	.
8eJ 8c 8G\	.	]]
=29	=29	=29
8GG\L	16dd\LL	.
.	16ee\JJ	.
8d 8B 8G\	8ff'\L	.
8dJ 8B 8G\	8ff'\J	.
=30	=30	=30
8C\L	16cc\LL	.
.	16dd\JJ	.
8e 8c 8G\	8ee'\L	.
8eJ 8c 8G\	8ee'\J	.
=31	=31	=31
8GG\L	16dd\LL	.
.	16b\JJ	.
8f 8B 8G\	4g^>/	.
8fJ 8B 8G\	.	.
=32	=32	=32
8fL 8G\	16bLL 16g\	.
.	16dd\JJ	.
8eJ 8c\	8cc 8g/	.
8r	8r	.
!!LO:LB:g=original
=33:|!	=33:|!	=33:|!
*>E	*>E	*
*k[f#]	*k[f#]	*
!	!LO:TUP:a:problem:klamra łukowa	!LO:DY:t=mf gajo
8GG\L	24dd\LL	mf
.	24ee\	.
.	24ff#\JJ	.
8B 8G 8D\	8.gg^\L	.
8BJ 8G 8D\	.	.
.	16ee\Jk	.
=34	=34	=34
8BB\L	16dd\LL	.
.	16cc\JJ	.
8G 8D\	8b'/L	.
8BJ 8G 8D\	8g'/J	.
=35	=35	=35
8D\L	16g#X/LL	.
.	16a/JJ	.
8c 8A 8F#\	8.dd^\L	.
8cJ 8A 8F#\	.	.
.	16cc\Jk	.
=36	=36	=36
8D\L	16b/LL	.
.	16a/JJ	.
8c 8A 8F#\	8f#'/L	.
8cJ 8A 8F#\	8d'/J	.
=37	=37	=37
!	!LO:TUP:a:problem:klamra łukowa	!
8GG\L	24dd\LL	.
.	24ee\	.
.	24ff#\JJ	.
8B 8G 8D\	8.gg^\L	.
8BJ 8G 8D\	.	.
.	16ee\Jk	.
=38	=38	=38
8BB\L	16dd\LL	.
.	16cc\JJ	.
8G 8D\	8b/L	.
8BJ 8G 8D\	8g/J	.
=39	=39	=39
8D\L	16b/LL	.
.	16a/JJ	.
8c 8A 8F#\	8f#/L	.
8cJ 8A 8F#\	8d/J	.
=40	=40	=40
8BL 8G\	8g\L	.
8BJ 8G\	8gg:J 8dd: 8b: 8g:\	.
8r	8r	.
==	==	==
*-	*-	*-
!!!system-decoration: {(*)}
!!!RDF**kern: > = above
!!!ENC: Filip Voros
!!!END: 2022-08-14
!!!ENC: Andrzej Kubiczek
!!!END: 2022-09-15
!!!YEC: Copyright 2022 Narodowy Instytut Fryderyka Chopina (https://polishscores.org)
!!!YEM: License CC-BY-4.0 (https://creativecommons.org/licenses/by/4.0)
